X:165
T: Yongyuan huainian zhou zong li
N: C0274
O: China, Shaanxi, Jingbian
S: I, 20]
N: neues Volkslied
R: Shange, Xintianyou. Xin minge]
M: 2/4
L: 1/16
K: C
d2ded2dc | d2dcA4- | A8 | c2AGFDFG | A8 |
A2Acd2A2 | G2FED4 | E2EDC4 | D8

